svg/u1f351.svg

<svg viewBox="0 0 128 128" xmlns="http://www.w3.org/2000/svg">
  <g>
    <path d="M101.98,24.25c0,0,6.37-4.95,9.91-8.49c4.36-4.36,5.66-8.93,4.14-9.47 c-1.52-0.54-7.41,0.54-7.41,0.54l-17.64,8.6l-4.47,6.64L101.98,24.25z" fill="#69A246"/>
    <path d="M28.36,21.96c0,0-3.7-1.31-7.84-5.77c-4.04-4.36-5.23-7.3-4.68-8.93 c0.54-1.63,20.69,4.36,20.69,4.36l13.4,5.99l3.48,7.19L28.36,21.96z" fill="#69A246"/>
    <path d="M67.02,22.29c0,0,4.25-8.49,11.11-12.09s14.05-4.36,25.05-4.79s12.85,0.87,12.85,0.87 s-8.28,3.92-16.23,7.62s-14.38,8.6-14.38,8.6L68.44,35.36L45.35,18.15c0,0-8.06-4.03-14.7-6.53S15.84,7.26,15.84,7.26 s1.61-2.06,16.77-1.31c15.25,0.76,20.91,4.57,25.48,7.3S67.02,22.29,67.02,22.29z" fill="#82B032"/>
    <radialGradient id="SVGID_1_" cx="79.0584" cy="16.9087" gradientUnits="userSpaceOnUse" r="88.8088">
      <stop offset="0.7185" stop-color="#FE622B"/>
      <stop offset="0.7805" stop-color="#FB582C"/>
      <stop offset="0.8861" stop-color="#F23D2F"/>
      <stop offset="1" stop-color="#E71932"/>
    </radialGradient>
    <path d="M68.22,24.69c2.5-0.22,7.98-7.82,22.95-6.61c14.97,1.2,37.81,18.2,31.66,50.08 c-3.34,17.34-12.36,28.52-29.03,40.64c-11.78,8.56-23.77,14-29.31,14.08c-4.99,0.08-11.87-10.84-11.87-10.84L68.22,24.69z" fill="url(#SVGID_1_)"/>
    <radialGradient id="SVGID_2_" cx="102.9602" cy="33.8205" gradientTransform="matrix(-0.8071 0.5904 -1.2855 -1.7574 229.5386 32.4711)" gradientUnits="userSpaceOnUse" r="28.3499">
      <stop offset="0.3709" stop-color="#FF9759"/>
      <stop offset="0.7473" stop-color="#FF9759" stop-opacity="0"/>
    </radialGradient>
    <path d="M68.22,24.69c2.5-0.22,7.98-7.82,22.95-6.61c14.04,1.13,34.99,16.14,32.49,44.28 c-0.17,1.88-2.09,9.95-5.88,10.35C99.3,74.69,90.46,52.07,85.7,46.11C76.6,34.74,68.22,24.69,68.22,24.69z" fill="url(#SVGID_2_)"/>
    <radialGradient id="SVGID_3_" cx="53.5314" cy="15.4818" gradientUnits="userSpaceOnUse" r="50.6988">
      <stop offset="0.4809" stop-color="#FF9759"/>
      <stop offset="1" stop-color="#FF9759" stop-opacity="0"/>
    </radialGradient>
    <path d="M67.53,24.89c2.5-0.22,8.67-8.02,23.64-6.82c11.37,0.91,27.26,10.93,31.58,29.65 c1.01,4.4-4.78,9.44-8.55,10.09c-11.52,1.99-25.3-14.74-30.07-20.7c-6.47-8.09-11.74-9.86-14.47-10.78 C68.56,25.95,67.53,24.89,67.53,24.89z" fill="url(#SVGID_3_)"/>
    <radialGradient id="SVGID_4_" cx="55.211" cy="29.0839" gradientUnits="userSpaceOnUse" r="76.8712">
      <stop offset="0.7006" stop-color="#FE622B"/>
      <stop offset="0.7658" stop-color="#FD5D2B"/>
      <stop offset="0.8396" stop-color="#F8502D"/>
      <stop offset="0.9175" stop-color="#F1392F"/>
      <stop offset="0.9978" stop-color="#E71A32"/>
      <stop offset="0.9992" stop-color="#E71932"/>
    </radialGradient>
    <path d="M88.38,66.94l-2.19,23.04l-9.53,21.65l-7.95,9.73c0,0-2.27,1.42-4.21,1.51 c-1.95,0.08-16.45-4.09-29.36-12.83S11.98,90.83,7.53,79.06c-5.56-14.7-5.76-36.95,7.55-49.26S41.5,15.7,52.62,18.08 s14.5,6.16,16.69,7.95s11.52,13.11,11.52,13.11l7.35,18.87L88.38,66.94z" fill="url(#SVGID_4_)"/>
    <radialGradient id="SVGID_5_" cx="44.6817" cy="18.368" gradientTransform="matrix(0.0177 0.9998 -0.7963 0.0141 58.5166 -26.5656)" gradientUnits="userSpaceOnUse" r="73.0825">
      <stop offset="0.6381" stop-color="#FF9759"/>
      <stop offset="1" stop-color="#FF9759" stop-opacity="0"/>
    </radialGradient>
    <path d="M56.83,95.2c-24.2,3-44.92-11.51-49.37-23.28C4.38,63.79,3.02,60.48,4.6,50.68 c1.28-7.9,4.25-14.99,10.47-20.88c12.41-11.75,26.57-14.39,38.15-11.71c11.08,2.56,13.89,6.15,16.07,7.94s11.52,13.11,11.52,13.11 l7.35,18.87C88.18,58.01,89.68,91.13,56.83,95.2z" fill="url(#SVGID_5_)"/>
    <radialGradient id="SVGID_6_" cx="77.9481" cy="17.4221" gradientUnits="userSpaceOnUse" r="85.7445">
      <stop offset="0.4987" stop-color="#F34124"/>
      <stop offset="0.9992" stop-color="#D10D22"/>
    </radialGradient>
    <path d="M67.91,121.45c0.43,0.12,4.58-1.88,7.19-5.13c7.01-8.75,15.91-20.91,17.49-43.44 c2.37-33.8-19.57-46.25-20.9-46.85c-1.33-0.59-3.26-0.59-1.78,1.04c1.48,1.63,17.94,20.01,15.71,45.07 c-1.99,22.42-10.82,39.58-13.94,43.44C68.58,119.43,66.66,121.09,67.91,121.45z" fill="url(#SVGID_6_)"/>
    <g>
      <g>
        <radialGradient id="SVGID_7_" cx="33.4356" cy="35.616" gradientTransform="matrix(0.8812 -0.4727 0.2402 0.4479 -4.585 35.4681)" gradientUnits="userSpaceOnUse" r="23.3297">
          <stop offset="0.3454" stop-color="#FEBD92"/>
          <stop offset="1" stop-color="#FEBD92" stop-opacity="0"/>
        </radialGradient>
        <path d="M28.31,50.94c0,0-3.16,7.63-9.52,2.6c-3.46-2.74-3.23-9.81,0.14-15.71 c4.12-7.24,11.89-12.22,22.26-13.63c9.26-1.26,15.55,1.37,16.7,6.83c1.4,6.6-4.47,6.33-4.47,6.33 C36.95,36.84,30.72,45.46,28.31,50.94z" fill="url(#SVGID_7_)"/>
      </g>
      <radialGradient id="SVGID_8_" cx="40.6255" cy="50.6859" gradientTransform="matrix(0.9695 -0.5798 0.4027 0.6582 -16.1877 41.227)" gradientUnits="userSpaceOnUse" r="19.8105">
        <stop offset="0.7993" stop-color="#FF9759"/>
        <stop offset="1" stop-color="#FF9759" stop-opacity="0"/>
      </radialGradient>
      <path d="M23.62,57.97c-0.64-7.23,3.9-15.39,11.49-20.01c7.8-4.75,17.51-5.37,24.99-1.66L23.62,57.97 z" fill="url(#SVGID_8_)"/>
      <g>
        <radialGradient id="SVGID_9_" cx="35.5981" cy="39.5809" gradientTransform="matrix(0.8689 -0.4949 0.2885 0.5066 -6.7544 37.1489)" gradientUnits="userSpaceOnUse" r="22.2771">
          <stop offset="0.7449" stop-color="#FF9759" stop-opacity="0"/>
          <stop offset="0.9737" stop-color="#FF9759"/>
        </radialGradient>
        <path d="M28.31,50.94c0,0-3.16,7.63-9.52,2.6c-3.46-2.74-3.23-9.81,0.14-15.71 c4.12-7.24,11.89-12.22,22.26-13.63c9.26-1.26,15.55,1.37,16.7,6.83c1.4,6.6-4.47,6.33-4.47,6.33 C36.95,36.84,30.72,45.46,28.31,50.94z" fill="url(#SVGID_9_)"/>
      </g>
    </g>
  </g>
</svg>

<svg viewBox="0 0 128 128" xmlns="http://www.w3.org/2000/svg">
  <defs>
    <radialGradient id="SVGID_1_" cx="79.0584" cy="16.9087" gradientUnits="userSpaceOnUse" r="88.8088">
      <stop offset="0.7185" stop-color="#FE622B"/>
      <stop offset="0.7805" stop-color="#FB582C"/>
      <stop offset="0.8861" stop-color="#F23D2F"/>
      <stop offset="1" stop-color="#E71932"/>
    </radialGradient>
    <radialGradient id="SVGID_2_" cx="-63.135475" cy="-40.456265" gradientTransform="matrix(-0.8071 0.5904 -1.2855 -1.7574 0 0)" gradientUnits="userSpaceOnUse" r="28.3499">
      <stop offset="0.3709" stop-color="#FF9759"/>
      <stop offset="0.7473" stop-color="#FF9759" stop-opacity="0"/>
    </radialGradient>
    <radialGradient id="SVGID_3_" cx="53.5314" cy="15.4818" gradientUnits="userSpaceOnUse" r="50.6988">
      <stop offset="0.4809" stop-color="#FF9759"/>
      <stop offset="1" stop-color="#FF9759" stop-opacity="0"/>
    </radialGradient>
    <radialGradient id="SVGID_4_" cx="55.211" cy="29.0839" gradientUnits="userSpaceOnUse" r="76.8712">
      <stop offset="0.7006" stop-color="#FE622B"/>
      <stop offset="0.7658" stop-color="#FD5D2B"/>
      <stop offset="0.8396" stop-color="#F8502D"/>
      <stop offset="0.9175" stop-color="#F1392F"/>
      <stop offset="0.9978" stop-color="#E71A32"/>
      <stop offset="0.9992" stop-color="#E71932"/>
    </radialGradient>
    <radialGradient id="SVGID_5_" cx="19.155142" cy="-55.68502" gradientTransform="matrix(0.0177 0.9998 -0.7963 0.0141 0 0)" gradientUnits="userSpaceOnUse" r="73.0825">
      <stop offset="0.6381" stop-color="#FF9759"/>
      <stop offset="1" stop-color="#FF9759" stop-opacity="0"/>
    </radialGradient>
    <radialGradient id="SVGID_6_" cx="77.9481" cy="17.4221" gradientUnits="userSpaceOnUse" r="85.7445">
      <stop offset="0.4987" stop-color="#F34124"/>
      <stop offset="0.9992" stop-color="#D10D22"/>
    </radialGradient>
    <radialGradient id="SVGID_7_" cx="12.631993" cy="92.84805" gradientTransform="matrix(0.8812 -0.4727 0.2402 0.4479 0 0)" gradientUnits="userSpaceOnUse" r="23.3297">
      <stop offset="0.3454" stop-color="#FEBD92"/>
      <stop offset="1" stop-color="#FEBD92" stop-opacity="0"/>
    </radialGradient>
    <radialGradient id="SVGID_8_" cx="9.353663" cy="85.774914" gradientTransform="matrix(0.9695 -0.5798 0.4027 0.6582 0 0)" gradientUnits="userSpaceOnUse" r="19.8105">
      <stop offset="0.7993" stop-color="#FF9759"/>
      <stop offset="1" stop-color="#FF9759" stop-opacity="0"/>
    </radialGradient>
    <radialGradient id="SVGID_9_" cx="11.344027" cy="89.216824" gradientTransform="matrix(0.8689 -0.4949 0.2885 0.5066 0 0)" gradientUnits="userSpaceOnUse" r="22.2771">
      <stop offset="0.7449" stop-color="#FF9759" stop-opacity="0"/>
      <stop offset="0.9737" stop-color="#FF9759"/>
    </radialGradient>
  </defs>
  <path d="M101.98,24.25 C101.98,24.25 108.35,19.3 111.89,15.76 C116.25,11.4 117.55,6.83 116.03,6.29 C114.51,5.75 108.62,6.83 108.62,6.83 L90.98,15.43 L86.51,22.07 L101.98,24.25 Z" fill="#69A246"/>
  <path d="M28.36,21.96 C28.36,21.96 24.66,20.65 20.52,16.19 C16.48,11.83 15.29,8.89 15.84,7.26 C16.38,5.63 36.53,11.62 36.53,11.62 L49.93,17.61 L53.41,24.8 L28.36,21.96 Z" fill="#69A246"/>
  <path d="M67.02,22.29 C67.02,22.29 71.27,13.8 78.13,10.2 C84.99,6.6 92.18,5.84 103.18,5.41 C114.18,4.98 116.03,6.28 116.03,6.28 C116.03,6.28 107.75,10.2 99.8,13.9 C91.85,17.6 85.42,22.5 85.42,22.5 L68.44,35.36 L45.35,18.15 C45.35,18.15 37.29,14.12 30.65,11.62 C24.01,9.12 15.84,7.26 15.84,7.26 C15.84,7.26 17.45,5.2 32.61,5.95 C47.86,6.71 53.52,10.52 58.09,13.25 C62.66,15.98 67.02,22.29 67.02,22.29 Z" fill="#82B032"/>
  <path d="M68.22,24.69 C70.72,24.47 76.2,16.87 91.17,18.08 C106.14,19.28 128.98,36.28 122.83,68.16 C119.49,85.5 110.47,96.68 93.8,108.8 C82.02,117.36 70.03,122.8 64.49,122.88 C59.5,122.96 52.62,112.04 52.62,112.04 L68.22,24.69 Z" fill="url(#SVGID_1_)"/>
  <path d="M68.22,24.69 C70.72,24.47 76.2,16.87 91.17,18.08 C105.21,19.21 126.16,34.22 123.66,62.36 C123.49,64.24 121.57,72.31 117.78,72.71 C99.3,74.69 90.46,52.07 85.7,46.11 C76.6,34.74 68.22,24.69 68.22,24.69 Z" fill="url(#SVGID_2_)"/>
  <path d="M67.53,24.89 C70.03,24.67 76.2,16.87 91.17,18.07 C102.54,18.98 118.43,29 122.75,47.72 C123.76,52.12 117.97,57.16 114.2,57.81 C102.68,59.8 88.9,43.07 84.13,37.11 C77.66,29.02 72.39,27.25 69.66,26.33 C68.56,25.95 67.53,24.89 67.53,24.89 Z" fill="url(#SVGID_3_)"/>
  <path d="M88.38,66.94 L86.19,89.98 L76.66,111.63 L68.71,121.36 C68.71,121.36 66.44,122.78 64.5,122.87 C62.55,122.95 48.05,118.78 35.14,110.04 C22.23,101.3 11.98,90.83 7.53,79.06 C1.97,64.36 1.77,42.11 15.08,29.8 C28.39,17.49 41.5,15.7 52.62,18.08 C63.74,20.46 67.12,24.24 69.31,26.03 C71.5,27.82 80.83,39.14 80.83,39.14 L88.18,58.01 L88.38,66.94 Z" fill="url(#SVGID_4_)"/>
  <path d="M56.83,95.2 C32.63,98.2 11.91,83.69 7.46,71.92 C4.38,63.79 3.02,60.48 4.6,50.68 C5.88,42.78 8.85,35.69 15.07,29.8 C27.48,18.05 41.64,15.41 53.22,18.09 C64.3,20.65 67.11,24.24 69.29,26.03 C71.47,27.82 80.81,39.14 80.81,39.14 L88.16,58.01 C88.18,58.01 89.68,91.13 56.83,95.2 Z" fill="url(#SVGID_5_)"/>
  <path d="M67.91,121.45 C68.34,121.57 72.49,119.57 75.1,116.32 C82.11,107.57 91.01,95.41 92.59,72.88 C94.96,39.08 73.02,26.63 71.69,26.03 C70.36,25.44 68.43,25.44 69.91,27.07 C71.39,28.7 87.85,47.08 85.62,72.14 C83.63,94.56 74.8,111.72 71.68,115.58 C68.58,119.43 66.66,121.09 67.91,121.45 Z" fill="url(#SVGID_6_)"/>
  <path d="M28.31,50.94 C28.31,50.94 25.15,58.57 18.79,53.54 C15.33,50.8 15.56,43.73 18.93,37.83 C23.05,30.59 30.82,25.61 41.19,24.2 C50.45,22.94 56.74,25.57 57.89,31.03 C59.29,37.63 53.42,37.36 53.42,37.36 C36.95,36.84 30.72,45.46 28.31,50.94 Z" fill="url(#SVGID_7_)"/>
  <path d="M23.62,57.97 C22.98,50.74 27.52,42.58 35.11,37.96 C42.91,33.21 52.62,32.59 60.1,36.3 L23.62,57.97 Z" fill="url(#SVGID_8_)"/>
  <path d="M28.31,50.94 C28.31,50.94 25.15,58.57 18.79,53.54 C15.33,50.8 15.56,43.73 18.93,37.83 C23.05,30.59 30.82,25.61 41.19,24.2 C50.45,22.94 56.74,25.57 57.89,31.03 C59.29,37.63 53.42,37.36 53.42,37.36 C36.95,36.84 30.72,45.46 28.31,50.94 Z" fill="url(#SVGID_9_)"/>
</svg>
